src/assets/modalgallery.svg

<?xml version="1.0" encoding="UTF-8" standalone="no"?>
<!DOCTYPE svg PUBLIC "-//W3C//DTD SVG 1.1//EN" "http://www.w3.org/Graphics/SVG/1.1/DTD/svg11.dtd">
<svg xmlns="http://www.w3.org/2000/svg" xmlns:xl="http://www.w3.org/1999/xlink" version="1.1" viewBox="449 -115 363 379" width="363pt" height="379pt" xmlns:dc="http://purl.org/dc/elements/1.1/">
  <metadata> Produced by OmniGraffle 7.5 
    <dc:date>2018-02-27 22:04:43 +0000</dc:date>
  </metadata>
  <defs>
    <font-face font-family="Helvetica Neue" font-size="14" panose-1="2 0 5 3 0 0 0 2 0 4" units-per-em="1000" underline-position="-100" underline-thickness="50" slope="0" x-height="517" cap-height="714" ascent="951.9958" descent="-212.99744" font-weight="500">
      <font-face-src>
        <font-face-name name="HelveticaNeue"/>
      </font-face-src>
    </font-face>
  </defs>
  <g stroke="none" stroke-opacity="1" stroke-dasharray="none" fill="none" fill-opacity="1">
    <title>Canvas 1</title>
    <rect fill="white" width="361.50093" height="377.62816"/>
    <g>
      <title>Layer 1</title>
      <rect x="450" y="-76.3355" width="361.50093" height="339.8355" fill="black" fill-opacity=".37467894"/>
      <rect x="569.2435" y="39.37165" width="134.73907" height="134.73907" fill="#e5e5e5"/>
      <rect x="727.9539" y="83.72734" width="46.00846" height="46.00846" fill="#e5e5e5"/>
      <rect x="488.93517" y="83.73695" width="46.00846" height="46.00846" fill="#e5e5e5"/>
      <rect x="581.1564" y="215.1897" width="30.39845" height="30.39845" fill="#e5e5e5"/>
      <rect x="621.4138" y="215.1897" width="30.39845" height="30.39845" fill="#e5e5e5"/>
      <rect x="661.6712" y="215.1897" width="30.39845" height="30.39845" fill="#e5e5e5"/>
      <text transform="translate(786.9241 98.54519)" fill="#505050" fill-opacity=".7544146">
        <tspan font-family="Helvetica Neue" font-size="14" font-weight="500" fill="#505050" fill-opacity=".7544146" x="5.5884344" y="13" textLength="8.4">&gt;</tspan>
      </text>
      <text transform="translate(455 98.54519)" fill="#505050" fill-opacity=".7544146">
        <tspan font-family="Helvetica Neue" font-size="14" font-weight="500" fill="#505050" fill-opacity=".7544146" x="5.5884344" y="13" textLength="8.4">&lt;</tspan>
      </text>
      <text transform="translate(702.27485 222.19293)" fill="#505050" fill-opacity=".7544146">
        <tspan font-family="Helvetica Neue" font-size="14" font-weight="500" fill="#505050" fill-opacity=".7544146" x="5.5884344" y="13" textLength="8.4">&gt;</tspan>
      </text>
      <text transform="translate(551.19266 222.19293)" fill="#505050" fill-opacity=".7544146">
        <tspan font-family="Helvetica Neue" font-size="14" font-weight="500" fill="#505050" fill-opacity=".7544146" x="5.5884344" y="13" textLength="8.4">&lt;</tspan>
      </text>
      <path d="M 625.8989 132.00969 L 641.8768 100.25437 C 642.6215 98.77431 644.42505 98.17819 645.9051 98.92289 C 646.485 99.21465 646.95454 99.6866 647.2434 100.26791 L 663.06086 132.10345 C 663.7981 133.58725 663.1929 135.38775 661.7091 136.12498 C 661.292 136.3322 660.8324 136.43948 660.3666 136.4383 L 628.5712 136.35808 C 626.91435 136.3539 625.5746 135.00737 625.5788 133.35052 C 625.57996 132.88479 625.68955 132.42573 625.8989 132.00969 Z" fill="#ccc"/>
      <path d="M 601.2804 131.98174 L 622.825 89.16306 C 623.5697 87.683 625.3732 87.08688 626.85326 87.83158 C 627.4331 88.12334 627.9027 88.59529 628.1915 89.1766 L 649.5197 132.10345 C 650.25694 133.58725 649.6517 135.38775 648.1679 136.12498 C 647.7508 136.3322 647.2912 136.43948 646.8255 136.4383 L 603.9527 136.33013 C 602.2959 136.32595 600.9561 134.97942 600.9603 133.32257 C 600.9615 132.85684 601.0711 132.39778 601.2804 131.98174 Z" fill="#c9c9c9"/>
      <path d="M 508.60744 118.60785 L 517.0871 101.75499 C 517.58356 100.76828 518.7859 100.37086 519.7726 100.86733 C 520.1592 101.06184 520.47224 101.37647 520.6648 101.76401 L 529.0593 118.65946 C 529.55077 119.64866 529.1473 120.84899 528.1581 121.34047 C 527.88 121.47863 527.5736 121.55014 527.2631 121.54936 L 510.389 121.50678 C 509.2844 121.504 508.39125 120.60631 508.39404 119.50174 C 508.3948 119.19126 508.4679 118.88521 508.60744 118.60785 Z" fill="#ccc"/>
      <path d="M 494.7595 118.5922 L 506.3704 95.51606 C 506.8669 94.52935 508.06924 94.13194 509.05595 94.6284 C 509.4425 94.82291 509.75557 95.13754 509.9481 95.52509 L 521.44246 118.65952 C 521.93394 119.64872 521.53046 120.84905 520.54126 121.34054 C 520.2632 121.47869 519.9568 121.55021 519.6463 121.54943 L 496.541 121.49113 C 495.43646 121.48834 494.5433 120.59065 494.5461 119.48609 C 494.54687 119.1756 494.6199 118.86956 494.7595 118.5922 Z" fill="#c9c9c9"/>
      <path d="M 747.6264 118.598 L 756.1058 101.74562 C 756.6023 100.75892 757.8046 100.3615 758.79135 100.85797 C 759.1779 101.05247 759.491 101.36711 759.6835 101.75465 L 768.0778 118.6496 C 768.56925 119.6388 768.1658 120.83913 767.1766 121.33061 C 766.8985 121.46877 766.5921 121.54029 766.2816 121.5395 L 749.408 121.49693 C 748.3034 121.49414 747.4102 120.59645 747.413 119.49189 C 747.4138 119.1814 747.4869 118.87536 747.6264 118.598 Z" fill="#ccc"/>
      <path d="M 733.7785 118.58227 L 745.38915 95.50676 C 745.8856 94.52006 747.088 94.12264 748.0747 94.61911 C 748.4612 94.81361 748.7743 95.12825 748.96684 95.51579 L 760.4609 118.6496 C 760.9524 119.6388 760.5489 120.83913 759.5597 121.33061 C 759.2816 121.46877 758.9752 121.54029 758.6647 121.5395 L 735.5601 121.4812 C 734.4555 121.47842 733.5623 120.58073 733.5651 119.47617 C 733.5659 119.16568 733.639 118.85963 733.7785 118.58227 Z" fill="#c9c9c9"/>
      <path d="M 774.3383 -4.715816 C 772.1269 -6.927243 769.1915 -8.143774 766.0639 -8.143774 C 762.9364 -8.143774 760.001 -6.927243 757.7896 -4.715816 C 755.5781 -2.504389 754.3616 .43104636 754.3616 3.5585656 C 754.3616 6.686085 755.5781 9.62152 757.7896 11.832947 C 760.001 14.044374 762.9364 15.260905 766.0639 15.260905 C 769.1915 15.260905 772.1269 14.044374 774.3383 11.832947 C 776.54975 9.62152 777.7663 6.686085 777.7663 3.5585656 C 777.7663 .43104636 776.54975 -2.504389 774.3383 -4.715816 Z M 773.3976 10.892229 C 771.4374 12.852469 768.8319 13.931094 766.0639 13.931094 C 763.296 13.931094 760.6905 12.852469 758.7303 10.892229 C 754.6867 6.848617 754.6867 .26851387 758.7303 -3.7750976 C 760.6905 -5.735338 763.296 -6.813963 766.0639 -6.813963 C 768.8319 -6.813963 771.4374 -5.735338 773.3976 -3.7750976 C 777.4412 .26851387 777.4412 6.848617 773.3976 10.892229 Z" fill="#333"/>
      <path d="M 771.22065 -1.5981472 C 770.9596 -1.8591843 770.541 -1.8591843 770.2799 -1.5981472 L 766.0639 2.6178472 L 761.8479 -1.5981472 C 761.5869 -1.8591843 761.1683 -1.8591843 760.9072 -1.5981472 C 760.6462 -1.3371102 760.6462 -.9184659 760.9072 -.6574288 L 765.1232 3.5585656 L 760.9072 7.77456 C 760.6462 8.035597 760.6462 8.454241 760.9072 8.715278 C 761.0353 8.843334 761.2077 8.912287 761.3751 8.912287 C 761.5426 8.912287 761.715 8.84826 761.843 8.715278 L 766.059 4.499284 L 770.275 8.715278 C 770.4031 8.843334 770.5754 8.912287 770.7429 8.912287 C 770.9153 8.912287 771.0827 8.84826 771.2108 8.715278 C 771.4718 8.454241 771.4718 8.035597 771.2108 7.77456 L 767.0047 3.5585656 L 771.22065 -.6574288 C 771.4817 -.9184659 771.4817 -1.3371102 771.22065 -1.5981472 Z" fill="#333"/>
      <path d="M 738.9026 3.265981 C 738.5301 3.265981 738.2321 3.5640034 738.2321 3.936531 L 738.2321 10.036053 C 738.2321 11.695043 736.881 13.04111 735.227 13.04111 L 720.5146 13.04111 C 718.85565 13.04111 717.5096 11.690076 717.5096 10.036053 L 717.5096 3.8371904 C 717.5096 3.4646626 717.2116 3.1666404 716.839 3.1666404 C 716.4665 3.1666404 716.1685 3.4646626 716.1685 3.8371904 L 716.1685 10.036053 C 716.1685 12.435132 718.1205 14.38221 720.5146 14.38221 L 735.227 14.38221 C 737.6261 14.38221 739.5732 12.430165 739.5732 10.036053 L 739.5732 3.936531 C 739.5732 3.5689704 739.2751 3.265981 738.9026 3.265981 Z" fill="#333"/>
      <path d="M 727.39896 9.057547 C 727.5281 9.18669 727.70194 9.256228 727.8708 9.256228 C 728.0397 9.256228 728.21355 9.191657 728.3427 9.057547 L 732.6044 4.7958286 C 732.8677 4.5325756 732.8677 4.1103775 732.6044 3.8471245 C 732.3412 3.5838715 731.919 3.5838715 731.6557 3.8471245 L 728.5414 6.966424 L 728.5414 -6.638291 C 728.5414 -7.010819 728.24335 -7.308841 727.8708 -7.308841 C 727.4983 -7.308841 727.2003 -7.010819 727.2003 -6.638291 L 727.2003 6.966424 L 724.081 3.8471245 C 723.8177 3.5838715 723.3955 3.5838715 723.1323 3.8471245 C 722.869 4.1103775 722.869 4.5325756 723.1323 4.7958286 Z" fill="#333"/>
      <path d="M 594.0227 239.17577 L 600.0539 227.18912 C 600.55035 226.20241 601.7527 225.805 602.7394 226.30147 C 603.126 226.49597 603.439 226.8106 603.6316 227.19815 L 609.6022 239.21508 C 610.0937 240.20428 609.6902 241.40462 608.701 241.8961 C 608.42294 242.03425 608.1165 242.10577 607.80604 242.105 L 595.80425 242.0747 C 594.6997 242.07192 593.8065 241.17423 593.8093 240.06967 C 593.8101 239.75918 593.88315 239.45313 594.0227 239.17577 Z" fill="#ccc"/>
      <path d="M 583.0646 239.16333 L 591.5736 222.2522 C 592.0701 221.2655 593.2724 220.86808 594.2591 221.36455 C 594.6457 221.55905 594.95875 221.8737 595.1513 222.26123 L 603.5748 239.21508 C 604.0663 240.20428 603.6628 241.40462 602.6736 241.8961 C 602.39556 242.03425 602.08916 242.10577 601.7787 242.105 L 584.8462 242.06227 C 583.7416 242.05948 582.84844 241.1618 582.8512 240.05723 C 582.852 239.74674 582.9251 239.4407 583.0646 239.16333 Z" fill="#c9c9c9"/>
      <path d="M 634.2801 239.16057 L 640.3113 227.17391 C 640.80776 226.1872 642.0101 225.7898 642.9968 226.28626 C 643.3834 226.48076 643.6964 226.7954 643.889 227.18294 L 649.8596 239.19988 C 650.3511 240.18908 649.9476 241.3894 648.9584 241.8809 C 648.68034 242.01905 648.3739 242.09056 648.06345 242.08978 L 636.06165 242.0595 C 634.9571 242.0567 634.0639 241.15902 634.0667 240.05446 C 634.0675 239.74397 634.14055 239.43793 634.2801 239.16057 Z" fill="#ccc"/>
      <path d="M 623.322 239.14813 L 631.831 222.237 C 632.3275 221.2503 633.5298 220.85287 634.5165 221.34934 C 634.9031 221.54385 635.21615 221.85848 635.4087 222.24602 L 643.8322 239.19988 C 644.3237 240.18908 643.9202 241.3894 642.931 241.8809 C 642.653 242.01905 642.34656 242.09056 642.0361 242.08978 L 625.1036 242.04706 C 623.999 242.04427 623.10585 241.14658 623.1086 240.04202 C 623.1094 239.73153 623.1825 239.42549 623.322 239.14813 Z" fill="#c9c9c9"/>
      <path d="M 674.9912 239.14536 L 681.0224 227.1587 C 681.5189 226.172 682.7212 225.77458 683.70795 226.27105 C 684.0945 226.46556 684.4076 226.7802 684.6001 227.16773 L 690.5707 239.18467 C 691.0622 240.17387 690.6587 241.3742 689.6695 241.86568 C 689.3915 242.00384 689.0851 242.07536 688.7746 242.07457 L 676.7728 242.0443 C 675.6682 242.0415 674.77505 241.14382 674.7778 240.03925 C 674.7786 239.72876 674.8517 239.42272 674.9912 239.14536 Z" fill="#ccc"/>
      <path d="M 664.0332 239.13292 L 672.5421 222.2218 C 673.0386 221.23508 674.24096 220.83767 675.2277 221.33414 C 675.6142 221.52864 675.9273 221.84328 676.1198 222.23082 L 684.54335 239.18467 C 685.0348 240.17387 684.6314 241.3742 683.6422 241.86568 C 683.3641 242.00384 683.0577 242.07536 682.7472 242.07457 L 665.8147 242.03185 C 664.71015 242.02906 663.817 241.13138 663.8198 240.0268 C 663.82055 239.71632 663.8936 239.41028 664.0332 239.13292 Z" fill="#c9c9c9"/>
      <ellipse cx="619.72485" cy="194.6502" rx="4.5401336" ry="5.3402765" fill="#e5e5e5"/>
      <ellipse cx="636.613" cy="194.6502" rx="4.5401336" ry="5.3402765" fill="#e5e5e5"/>
      <ellipse cx="653.5012" cy="194.6502" rx="4.5401336" ry="5.3402765" fill="#e5e5e5"/>
      <circle cx="582.7327" cy="21.11957" r="11.731848" fill="black"/>
      <circle cx="502.4244" cy="66.312434" r="11.731848" fill="#4040ff"/>
      <circle cx="707.2689" cy="-20.603667" r="11.731848" fill="#ff4040"/>
      <circle cx="673.4787" cy="190.885" r="11.731848" fill="#54d6ff"/>
      <circle cx="567.72836" cy="209.03884" r="11.731848" fill="#ff9300"/>
      <text transform="translate(574.5874 12.92357)" fill="white">
        <tspan font-family="Helvetica Neue" font-size="14" font-weight="500" fill="white" x="4.253275" y="13" textLength="7.784">1</tspan>
      </text>
      <text transform="translate(494.57023 58.116435)" fill="white">
        <tspan font-family="Helvetica Neue" font-size="14" font-weight="500" fill="white" x="4.253275" y="13" textLength="7.784">2</tspan>
      </text>
      <text transform="translate(699.1236 -28.799666)" fill="white">
        <tspan font-family="Helvetica Neue" font-size="14" font-weight="500" fill="white" x="4.253275" y="13" textLength="7.784">3</tspan>
      </text>
      <text transform="translate(664.7987 182.689)" fill="white">
        <tspan font-family="Helvetica Neue" font-size="14" font-weight="500" fill="white" x="4.253275" y="13" textLength="7.784">4</tspan>
      </text>
      <text transform="translate(559.5831 200.84284)" fill="white">
        <tspan font-family="Helvetica Neue" font-size="14" font-weight="500" fill="white" x="4.253275" y="13" textLength="7.784">5</tspan>
      </text>
      <circle cx="466.4316" cy="-57.43916" r="11.731848" fill="#ff40ff"/>
      <text transform="translate(458.2863 -65.63516)" fill="white">
        <tspan font-family="Helvetica Neue" font-size="14" font-weight="500" fill="white" x="4.253275" y="13" textLength="7.784">6</tspan>
      </text>
      <circle cx="633.59935" cy="-95.23183" r="11.731848" fill="#999"/>
      <text transform="translate(625.4541 -103.42783)" fill="white">
        <tspan font-family="Helvetica Neue" font-size="14" font-weight="500" fill="white" x="4.253275" y="13" textLength="7.784">7</tspan>
      </text>
    </g>
  </g>
</svg>

<svg xmlns="http://www.w3.org/2000/svg" viewBox="449 -115 363 379">
  <g fill="none">
    <path fill="#fff" d="M0 0h361.5v377.63H0z"/>
    <path fill="#000" fill-opacity=".37" d="M450-76.34h361.5V263.5H450z"/>
    <path fill="#e5e5e5" d="M569.24 39.37h134.74v134.74H569.24zM727.95 83.73h46.01v46.01h-46.01zM488.94 83.74h46.01v46.01h-46.01zM581.16 215.19h30.4v30.4h-30.4zM621.41 215.19h30.4v30.4h-30.4zM661.67 215.19h30.4v30.4h-30.4z"/>
    <text transform="translate(786.92 98.55)" fill="#505050" fill-opacity=".75">
      <tspan font-family="Helvetica Neue" font-size="14" font-weight="500" x="5.59" y="13" textLength="8.4">&gt;</tspan>
    </text>
    <text transform="translate(455 98.55)" fill="#505050" fill-opacity=".75">
      <tspan font-family="Helvetica Neue" font-size="14" font-weight="500" x="5.59" y="13" textLength="8.4">&lt;</tspan>
    </text>
    <text transform="translate(702.27 222.2)" fill="#505050" fill-opacity=".75">
      <tspan font-family="Helvetica Neue" font-size="14" font-weight="500" x="5.59" y="13" textLength="8.4">&gt;</tspan>
    </text>
    <text transform="translate(551.2 222.2)" fill="#505050" fill-opacity=".75">
      <tspan font-family="Helvetica Neue" font-size="14" font-weight="500" x="5.59" y="13" textLength="8.4">&lt;</tspan>
    </text>
    <path d="M625.9 132.01l15.98-31.76a3 3 0 0 1 5.36.02l15.82 31.83a3 3 0 0 1-2.7 4.34l-31.79-.08a3 3 0 0 1-2.67-4.35z" fill="#ccc"/>
    <path d="M601.28 131.98l21.55-42.82a3 3 0 0 1 5.36.02l21.33 42.92a3 3 0 0 1-2.7 4.34l-42.87-.11a3 3 0 0 1-2.67-4.35z" fill="#c9c9c9"/>
    <path d="M508.6 118.6l8.49-16.85a2 2 0 0 1 3.57.01l8.4 16.9a2 2 0 0 1-1.8 2.89l-16.87-.04a2 2 0 0 1-1.78-2.9z" fill="#ccc"/>
    <path d="M494.76 118.6l11.61-23.08a2 2 0 0 1 3.58 0l11.5 23.14a2 2 0 0 1-1.8 2.89l-23.1-.06a2 2 0 0 1-1.8-2.9z" fill="#c9c9c9"/>
    <path d="M747.63 118.6l8.48-16.85a2 2 0 0 1 3.57 0l8.4 16.9a2 2 0 0 1-1.8 2.89l-16.87-.04a2 2 0 0 1-1.78-2.9z" fill="#ccc"/>
    <path d="M733.78 118.58l11.6-23.07a2 2 0 0 1 3.59 0l11.5 23.14a2 2 0 0 1-1.8 2.89l-23.11-.06a2 2 0 0 1-1.78-2.9z" fill="#c9c9c9"/>
    <path d="M774.34-4.72a11.62 11.62 0 0 0-8.28-3.42c-3.12 0-6.06 1.21-8.27 3.42a11.62 11.62 0 0 0-3.43 8.28c0 3.13 1.22 6.06 3.43 8.27a11.62 11.62 0 0 0 8.27 3.43c3.13 0 6.07-1.22 8.28-3.43a11.62 11.62 0 0 0 3.43-8.27c0-3.13-1.22-6.06-3.43-8.28zm-.94 15.61a10.3 10.3 0 0 1-7.34 3.04 10.38 10.38 0 1 1 7.33-17.7 10.38 10.38 0 0 1 0 14.66z" fill="#333"/>
    <path d="M771.22-1.6a.66.66 0 0 0-.94 0l-4.22 4.22-4.21-4.22a.66.66 0 0 0-.94 0 .66.66 0 0 0 0 .94l4.21 4.22-4.21 4.21a.67.67 0 1 0 .47 1.14c.16 0 .34-.06.46-.2l4.22-4.21 4.22 4.22c.12.12.3.2.46.2.18 0 .34-.07.47-.2a.66.66 0 0 0 0-.95l-4.2-4.21 4.21-4.22a.66.66 0 0 0 0-.94zM738.9 3.27c-.37 0-.67.3-.67.67v6.1a3 3 0 0 1-3 3H720.5a3 3 0 0 1-3-3v-6.2c0-.38-.3-.67-.67-.67-.37 0-.67.3-.67.67v6.2c0 2.4 1.95 4.34 4.34 4.34h14.72c2.4 0 4.34-1.95 4.34-4.34v-6.1c0-.37-.3-.67-.67-.67z" fill="#333"/>
    <path d="M727.4 9.06a.65.65 0 0 0 .94 0l4.26-4.26a.67.67 0 0 0 0-.95.67.67 0 0 0-.94 0l-3.12 3.12v-13.6c0-.38-.3-.68-.67-.68-.37 0-.67.3-.67.67v13.6l-3.12-3.11a.67.67 0 0 0-.95 0 .67.67 0 0 0 0 .95z" fill="#333"/>
    <path d="M594.02 239.18l6.03-12a2 2 0 0 1 3.58.02l5.97 12.02a2 2 0 0 1-1.8 2.88l-12-.03a2 2 0 0 1-1.78-2.9z" fill="#ccc"/>
    <path d="M583.06 239.16l8.51-16.9a2 2 0 0 1 3.58 0l8.42 16.96a2 2 0 0 1-1.8 2.88l-16.92-.04a2 2 0 0 1-1.79-2.9z" fill="#c9c9c9"/>
    <path d="M634.28 239.16l6.03-11.99a2 2 0 0 1 3.58.01l5.97 12.02a2 2 0 0 1-1.8 2.89l-12-.03a2 2 0 0 1-1.78-2.9z" fill="#ccc"/>
    <path d="M623.32 239.15l8.51-16.91a2 2 0 0 1 3.58 0l8.42 16.96a2 2 0 0 1-1.8 2.89l-16.93-.04a2 2 0 0 1-1.78-2.9z" fill="#c9c9c9"/>
    <path d="M675 239.15l6.02-12a2 2 0 0 1 3.58.02l5.97 12.01a2 2 0 0 1-1.8 2.9l-12-.04a2 2 0 0 1-1.78-2.9z" fill="#ccc"/>
    <path d="M664.03 239.13l8.51-16.9a2 2 0 0 1 3.58 0l8.42 16.95a2 2 0 0 1-1.8 2.9l-16.93-.05a2 2 0 0 1-1.78-2.9z" fill="#c9c9c9"/>
    <ellipse cx="619.72" cy="194.65" rx="4.54" ry="5.34" fill="#e5e5e5"/>
    <ellipse cx="636.61" cy="194.65" rx="4.54" ry="5.34" fill="#e5e5e5"/>
    <ellipse cx="653.5" cy="194.65" rx="4.54" ry="5.34" fill="#e5e5e5"/>
    <circle cx="582.73" cy="21.12" r="11.73" fill="#000"/>
    <circle cx="502.42" cy="66.31" r="11.73" fill="#4040ff"/>
    <circle cx="707.27" cy="-20.6" r="11.73" fill="#ff4040"/>
    <circle cx="673.48" cy="190.88" r="11.73" fill="#54d6ff"/>
    <circle cx="567.73" cy="209.04" r="11.73" fill="#ff9300"/>
    <text transform="translate(574.59 12.92)" fill="#fff">
      <tspan font-family="Helvetica Neue" font-size="14" font-weight="500" x="4.25" y="13" textLength="7.78">1</tspan>
    </text>
    <text transform="translate(494.57 58.12)" fill="#fff">
      <tspan font-family="Helvetica Neue" font-size="14" font-weight="500" x="4.25" y="13" textLength="7.78">2</tspan>
    </text>
    <text transform="translate(699.12 -28.8)" fill="#fff">
      <tspan font-family="Helvetica Neue" font-size="14" font-weight="500" x="4.25" y="13" textLength="7.78">3</tspan>
    </text>
    <text transform="translate(664.8 182.69)" fill="#fff">
      <tspan font-family="Helvetica Neue" font-size="14" font-weight="500" x="4.25" y="13" textLength="7.78">4</tspan>
    </text>
    <text transform="translate(559.58 200.84)" fill="#fff">
      <tspan font-family="Helvetica Neue" font-size="14" font-weight="500" x="4.25" y="13" textLength="7.78">5</tspan>
    </text>
    <circle cx="466.43" cy="-57.44" r="11.73" fill="#ff40ff"/>
    <text transform="translate(458.29 -65.64)" fill="#fff">
      <tspan font-family="Helvetica Neue" font-size="14" font-weight="500" x="4.25" y="13" textLength="7.78">6</tspan>
    </text>
    <circle cx="633.6" cy="-95.23" r="11.73" fill="#999"/>
    <text transform="translate(625.45 -103.43)" fill="#fff">
      <tspan font-family="Helvetica Neue" font-size="14" font-weight="500" x="4.25" y="13" textLength="7.78">7</tspan>
    </text>
  </g>
</svg>
